X:133
T:Skibbereen
B:Terry "Cuz" Teahan "Sliabh Luachra on Parade" 1980
Z:Patrick Cavanagh
M:3/4
L:1/8
R:Waltz
K:D
B2 | A4G2 | A4B2 | e4d2 | B4G2 | A4B2 | E4D2 | E6 | E4d2 | 
e4f2 | g4f2 | e4B2 | d4e2 | B4A2 | G4A2 | B6 | B4d2 | 
e4f2 | g4f2 | e4B2 | d4e2 | B4A2 | G4A2 | B6 | B4B2 | 
A4G2 | A4B2 | e4d2 | B4G2 | A4B2 | E4D2 | E6 | E4 :|| 

